X: 1
T: I Love a Lassie
M: C|
L: 1/4
K: A
[| "A"c2 "E7"de | "A"c A2 B | c>d "E7"ed | "A"cA ce \
|  "A"a2 aa | "B7"gf e^d | "E"e4- | "E7"ez fg |]
[| "A"a2 a>g | f e2 f | af ef | "E7"c B3 \
|  "A"c e2 f | "(E)"c2 "E7"B2 | "A"A4- | A z3 |]
